X:123
T:Sonny Brogan's #1
T:Reverend Brother's Jig, The
T:Port an Bhrathair
T:Monk's Jig, The
T:Sonny Brogan's Fancy
R:jig
H:See also #44
Z:id:hn-jig-123
M:6/8
K:Ador
~A3 cBc|dcd ~e3|~A3 cde|dcA AGE|AGA cBc|dcd ede|aba ged|BAG A3:|
eaa aba|gef ~g3|eaa aba|ged cAA|eaa aba|gef ~g3|aba ged|BAG A3:|

